svgs/sharp-solid/shelves-empty.svg

<svg xmlns="http://www.w3.org/2000/svg" viewBox="0 0 640 512"><!--! Font Awesome Pro 6.6.0 by @fontawesome - https://fontawesome.com License - https://fontawesome.com/license (Commercial License) Copyright 2024 Fonticons, Inc. --><path d="M64 32L64 0 0 0 0 32 0 160l0 32 0 32L0 416l0 32 0 32 0 32 64 0 0-32 512 0 0 32 64 0 0-32 0-32 0-32 0-192 0-32 0-32 0-128 0-32L576 0l0 32 0 128L64 160 64 32zm0 192l512 0 0 192L64 416l0-192z"/></svg>

<svg xmlns="http://www.w3.org/2000/svg" viewBox="0 0 640 512"><!--! Font Awesome Pro 6.4.0 by @fontawesome - https://fontawesome.com License - https://fontawesome.com/license (Commercial License) Copyright 2023 Fonticons, Inc. --><path d="M64 32V0H0V32 160v32 32V416v32 32 32H64V480H576v32h64V480 448 416 224 192 160 32 0H576V32 160H64V32zm0 192H576V416H64V224z"/></svg>
